svgs/sharp-regular/gopuram.svg

<svg xmlns="http://www.w3.org/2000/svg" viewBox="0 0 512 512"><!--! Font Awesome Pro 6.6.0 by @fontawesome - https://fontawesome.com License - https://fontawesome.com/license (Commercial License) Copyright 2024 Fonticons, Inc. --><path d="M144 0l0 24 0 8 48 0 0-8 0-24 48 0 0 24 0 8 32 0 0-8 0-24 48 0 0 24 0 8 48 0 0-8 0-24 48 0 0 24 0 8 0 32 0 16 0 8 0 40 32 0 0 48 0 48 32 0 0 48 0 64 32 0 0 48 0 80 0 48-48 0L48 512 0 512l0-48 0-80 0-48 32 0 0-64 0-48 32 0 0-48 0-48 32 0 0-40 0-8 0-16 0-32 0-8L96 0l48 0zm0 88l0 40 224 0 0-40 0-8L144 80l0 8zm-32 88l0 48 48 0 0-48-16 0-32 0zm208 48l0-48-128 0 0 48 32 0c0-17.7 14.3-32 32-32s32 14.3 32 32l32 0zm32-48l0 48 48 0 0-48-32 0-16 0zM80 336l48 0 0-64-16 0-32 0 0 64zm80 0l64 0 0-16c0-17.7 14.3-32 32-32s32 14.3 32 32l0 16 64 0 0-64-192 0 0 64zm224 0l48 0 0-64-32 0-16 0 0 64zM128 464l80 0 0-16c0-26.5 21.5-48 48-48s48 21.5 48 48l0 16 80 0 0-80-32 0-192 0-32 0 0 80zm288 0l48 0 0-80-32 0-16 0 0 80zM48 384l0 80 48 0 0-80-16 0-32 0z"/></svg>

<svg xmlns="http://www.w3.org/2000/svg" viewBox="0 0 512 512"><!--! Font Awesome Pro 6.4.0 by @fontawesome - https://fontawesome.com License - https://fontawesome.com/license (Commercial License) Copyright 2023 Fonticons, Inc. --><path d="M144 0V24v8h48V24 0h48V24v8h32V24 0h48V24v8h48V24 0h48V24v8V64 80v8 40h32v48 48h32v48 64h32v48 80 48H464 48 0V464 384 336H32V272 224H64V176 128H96V88 80 64 32 24 0h48zm0 88v40H368V88 80H144v8zm-32 88v48h48V176H144 112zm208 48V176H192v48h32c0-17.7 14.3-32 32-32s32 14.3 32 32h32zm32-48v48h48V176H368 352zM80 336h48V272H112 80v64zm80 0h64V320c0-17.7 14.3-32 32-32s32 14.3 32 32v16h64V272H160v64zm224 0h48V272H400 384v64zM128 464h80V448c0-26.5 21.5-48 48-48s48 21.5 48 48v16h80V384H352 160 128v80zm288 0h48V384H432 416v80zM48 384v80H96V384H80 48z"/></svg>
